icons/night/python.svg

<svg xmlns="http://www.w3.org/2000/svg" fill="none" viewBox="0 0 16 16"><path
    fill="#3d59a1"
    d="M5 3.286V4h2.8v1H4.2C3.9 5 2 5.071 2 8.5 2 10.557 3.2 11 3.5 11H4V9.286C4 7.914 5.4 7.57 6 7.57h3.15c1.35 0 1.35-.857 1.35-1.285v-3C10.5 3 9.96 2 7.8 2S5 3 5 3.286Z"
  /><path
    fill="#faba4a"
    d="M10.5 12.714V12H7.9v-1h3.2c.267 0 2.4 0 2.4-3.429C13.5 5.514 12.167 5 11.9 5h-.4v1.714c0 1.372-1.467 1.715-2 1.715H6.2C5 8.429 5 9.286 5 9.714v3C5 13 5.98 14 7.9 14s2.6-1 2.6-1.286Z"
  /></svg>

<svg width="16" height="16" viewBox="0 0 16 16" fill="none" xmlns="http://www.w3.org/2000/svg">
<path d="M5 3.286V4H7.8V5H4.2C3.9 5 2 5.071 2 8.5C2 10.557 3.2 11 3.5 11H4V9.286C4 7.914 5.4 7.57 6 7.57H9.15C10.5 7.57 10.5 6.713 10.5 6.285V3.285C10.5 3 9.96 2 7.8 2C5.64 2 5 3 5 3.286Z" fill="#3D59A1"/>
<path d="M10.5 12.714V12H7.9V11H11.1C11.367 11 13.5 11 13.5 7.571C13.5 5.514 12.167 5 11.9 5H11.5V6.714C11.5 8.086 10.033 8.429 9.5 8.429H6.2C5 8.429 5 9.286 5 9.714V12.714C5 13 5.98 14 7.9 14C9.82 14 10.5 13 10.5 12.714Z" fill="#FABA4A"/>
</svg>
